X: 135019
T: ROUND THE WORLD
Q: "Irish Reel."
R: Reel.
%R: reel
B: James Kerr "Merry Melodies" v.1 p.35 s.0 #19
Z: 2016 John Chambers <jc:trillian.mit.edu>
M: C
L: 1/8
K: G
uD |\
G2GB A2Ac | B2BA (BG)EF |\
G2GB A2AB | dcBA GE E ::\
uf |\
geef geef | geag fddB |\
efge agfd | BBBA BE E :|

%%sep 1 1 500
%%sep 1 1 500

